assets/open.svg

<svg xmlns="http://www.w3.org/2000/svg"  viewBox="0 0 16 16" width="16px" height="16px"><path d="M 7.5 1 C 3.917969 1 1 3.917969 1 7.5 C 1 11.082031 3.917969 14 7.5 14 C 11.082031 14 14 11.082031 14 7.5 C 14 3.917969 11.082031 1 7.5 1 Z M 7.5 2 C 10.542969 2 13 4.457031 13 7.5 C 13 10.542969 10.542969 13 7.5 13 C 4.457031 13 2 10.542969 2 7.5 C 2 4.457031 4.457031 2 7.5 2 Z M 7 4 L 7 7 L 4 7 L 4 8 L 7 8 L 7 11 L 8 11 L 8 8 L 11 8 L 11 7 L 8 7 L 8 4 Z"/></svg>

<svg xmlns="http://www.w3.org/2000/svg" xmlns:xlink="http://www.w3.org/1999/xlink" viewBox="0,0,256,256" width="16px" height="16px" fill-rule="nonzero"><g fill="#fff1d2" fill-rule="nonzero" stroke="none" stroke-width="1" stroke-linecap="butt" stroke-linejoin="miter" stroke-miterlimit="10" stroke-dasharray="" stroke-dashoffset="0" font-family="none" font-weight="none" font-size="none" text-anchor="none" style="mix-blend-mode: normal"><g transform="scale(16,16)"><path d="M7.5,1c-3.58203,0 -6.5,2.91797 -6.5,6.5c0,3.58203 2.91797,6.5 6.5,6.5c3.58203,0 6.5,-2.91797 6.5,-6.5c0,-3.58203 -2.91797,-6.5 -6.5,-6.5zM7.5,2c3.04297,0 5.5,2.45703 5.5,5.5c0,3.04297 -2.45703,5.5 -5.5,5.5c-3.04297,0 -5.5,-2.45703 -5.5,-5.5c0,-3.04297 2.45703,-5.5 5.5,-5.5zM7,4v3h-3v1h3v3h1v-3h3v-1h-3v-3z"></path></g></g></svg>
